papirus/48x48/apps/screencloud.svg

<svg height="48" width="48" xmlns="http://www.w3.org/2000/svg"><path d="m21 6a15 15 0 0 0 -15 15 15 15 0 0 0  .5019531 3.816406c-2.6669187 1.3098-4.5019531 4.068938-4.5019531 7.285156v1.796876c0 4.487891 3.5647695 8.101562 7.9921875 8.101562h28.0156245c4.427419 0 7.992188-3.613671 7.992188-8.101562v-1.796876c0-3.400889-2.048652-6.295442-4.966797-7.5a9 9 0 0 0 1.966797-5.601562 9 9 0 0 0 -9-9 9 9 0 0 0 -2.458984.345703 15 15 0 0 0 -10.541016-4.345703z" fill="#569cde"/><path d="m21 6a15 15 0 0 0 -15 15 15 15 0 0 0  .0214844.402344 15 15 0 0 1  14.9785156-14.402344 15 15 0 0 1  10.541016 4.345703 9 9 0 0 1  2.458984-.345703 9 9 0 0 1  8.978516 8.5625 9 9 0 0 0  .021484-.5625 9 9 0 0 0 -9-9 9 9 0 0 0 -2.458984.345703 15 15 0 0 0 -10.541016-4.345703zm20.560547 18.867188a9 9 0 0 1 -.527344.734374c2.918145 1.204558 4.966797 4.099112 4.966797 7.5v-1c0-3.187544-1.810965-5.911014-4.439453-7.234374zm-35.2617189.068359c-2.552438 1.349256-4.2988281 4.035177-4.2988281 7.166015v1c0-3.216218 1.8350344-5.975356 4.5019531-7.285156a15 15 0 0 1 -.203125-.880859z" fill="#fff" opacity=".2"/><path d="m42.978516 18.5625a9 9 0 0 1 -1.945313 5.039062c.183061.075565.351417.177052.527344.265626a9 9 0 0 0 1.439453-4.867188 9 9 0 0 0 -.021484-.4375zm-36.9570316 1.839844a15 15 0 0 0 -.0214844.597656 15 15 0 0 0  .2988281 2.935547c.0696064-.036795.1323274-.08437.203125-.119141a15 15 0 0 1 -.4804687-3.414062zm-4.0214844 12.496094v1c0 4.487891 3.5647695 8.101562 7.9921875 8.101562h28.0156245c4.42742 0 7.992188-3.613671 7.992188-8.101562v-1c0 4.487891-3.564768 8.101562-7.992188 8.101562h-28.0156245c-4.427418 0-7.9921875-3.613671-7.9921875-8.101562z" opacity=".3"/><path d="m24 15a12 12 0 0 0 -12 12 12 12 0 0 0  12 12 12 12 0 0 0  12-12 12 12 0 0 0 -12-12zm0 3a9 9 0 0 1 9 9 9 9 0 0 1 -9 9 9 9 0 0 1 -9-9 9 9 0 0 1  9-9z" opacity=".2"/><path d="m24 14a12 12 0 0 0 -12 12 12 12 0 0 0  12 12 12 12 0 0 0  12-12 12 12 0 0 0 -12-12zm0 3a9 9 0 0 1 9 9 9 9 0 0 1 -9 9 9 9 0 0 1 -9-9 9 9 0 0 1  9-9z" fill="#aaceee"/><path d="m24 21a6 6 0 0 0 -6 6 6 6 0 0 0  6 6 6 6 0 0 0  6-6 6 6 0 0 0 -6-6z" opacity=".2"/><path d="m24 20a6 6 0 0 0 -6 6 6 6 0 0 0  6 6 6 6 0 0 0  6-6 6 6 0 0 0 -6-6z" fill="#fff"/><circle cx="15" cy="13" opacity=".2" r="3"/><circle cx="15" cy="12" fill="#fff" r="3"/></svg>

<?xml version="1.0" encoding="UTF-8" standalone="no"?>
<!-- Created with Inkscape (http://www.inkscape.org/) -->

<svg
   xmlns:dc="http://purl.org/dc/elements/1.1/"
   xmlns:cc="http://creativecommons.org/ns#"
   xmlns:rdf="http://www.w3.org/1999/02/22-rdf-syntax-ns#"
   xmlns:svg="http://www.w3.org/2000/svg"
   xmlns="http://www.w3.org/2000/svg"
   xmlns:sodipodi="http://sodipodi.sourceforge.net/DTD/sodipodi-0.dtd"
   xmlns:inkscape="http://www.inkscape.org/namespaces/inkscape"
   id="svg2817"
   height="48"
   width="48"
   version="1.0"
   inkscape:version="0.91 r13725"
   sodipodi:docname="screencloud.svg">
  <defs
     id="defs13" />
  <sodipodi:namedview
     pagecolor="#ffffff"
     bordercolor="#666666"
     borderopacity="1"
     objecttolerance="10"
     gridtolerance="10"
     guidetolerance="10"
     inkscape:pageopacity="0"
     inkscape:pageshadow="2"
     inkscape:window-width="1600"
     inkscape:window-height="849"
     id="namedview11"
     showgrid="false"
     inkscape:zoom="1"
     inkscape:cx="19.530772"
     inkscape:cy="23.967244"
     inkscape:window-x="0"
     inkscape:window-y="0"
     inkscape:window-maximized="1"
     inkscape:current-layer="svg2817" />
  <metadata
     id="metadata57">
    <rdf:RDF>
      <cc:Work
         rdf:about="">
        <dc:format>image/svg+xml</dc:format>
        <dc:type
           rdf:resource="http://purl.org/dc/dcmitype/StillImage" />
        <dc:title></dc:title>
      </cc:Work>
    </rdf:RDF>
  </metadata>
  <path
     style="opacity:1;fill:#569cde;fill-opacity:1;stroke:none;stroke-width:2;stroke-linecap:round;stroke-linejoin:round;stroke-miterlimit:4;stroke-dasharray:none;stroke-opacity:1"
     d="M 21,6 A 15,15 0 0 0 6,21 15,15 0 0 0 6.5019531,24.816406 C 3.8350344,26.126206 2,28.885344 2,32.101562 l 0,1.796876 C 2,38.386329 5.5647695,42 9.9921875,42 L 38.007812,42 C 42.435231,42 46,38.386329 46,33.898438 l 0,-1.796876 c 0,-3.400889 -2.048652,-6.295442 -4.966797,-7.5 A 9,9 0 0 0 43,19 9,9 0 0 0 34,10 9,9 0 0 0 31.541016,10.345703 15,15 0 0 0 21,6 Z"
     id="rect4141"
     inkscape:connector-curvature="0" />
  <path
     style="opacity:0.2;fill:#ffffff;fill-opacity:1;stroke:none;stroke-width:2;stroke-linecap:round;stroke-linejoin:round;stroke-miterlimit:4;stroke-dasharray:none;stroke-opacity:1"
     d="M 21 6 A 15 15 0 0 0 6 21 A 15 15 0 0 0 6.0214844 21.402344 A 15 15 0 0 1 21 7 A 15 15 0 0 1 31.541016 11.345703 A 9 9 0 0 1 34 11 A 9 9 0 0 1 42.978516 19.5625 A 9 9 0 0 0 43 19 A 9 9 0 0 0 34 10 A 9 9 0 0 0 31.541016 10.345703 A 15 15 0 0 0 21 6 z M 41.560547 24.867188 A 9 9 0 0 1 41.033203 25.601562 C 43.951348 26.80612 46 29.700674 46 33.101562 L 46 32.101562 C 46 28.914018 44.189035 26.190548 41.560547 24.867188 z M 6.2988281 24.935547 C 3.7463901 26.284803 2 28.970724 2 32.101562 L 2 33.101562 C 2 29.885344 3.8350344 27.126206 6.5019531 25.816406 A 15 15 0 0 1 6.2988281 24.935547 z "
     id="path4148" />
  <path
     style="opacity:0.3;fill:#000000;fill-opacity:1;stroke:none;stroke-width:2;stroke-linecap:round;stroke-linejoin:round;stroke-miterlimit:4;stroke-dasharray:none;stroke-opacity:1"
     d="M 42.978516 18.5625 A 9 9 0 0 1 41.033203 23.601562 C 41.216264 23.677127 41.38462 23.778614 41.560547 23.867188 A 9 9 0 0 0 43 19 A 9 9 0 0 0 42.978516 18.5625 z M 6.0214844 20.402344 A 15 15 0 0 0 6 21 A 15 15 0 0 0 6.2988281 23.935547 C 6.3684345 23.898752 6.4311555 23.851177 6.5019531 23.816406 A 15 15 0 0 1 6.0214844 20.402344 z M 2 32.898438 L 2 33.898438 C 2 38.386329 5.5647695 42 9.9921875 42 L 38.007812 42 C 42.435232 42 46 38.386329 46 33.898438 L 46 32.898438 C 46 37.386329 42.435232 41 38.007812 41 L 9.9921875 41 C 5.5647695 41 2 37.386329 2 32.898438 z "
     id="path4153" />
  <path
     id="path4170"
     d="M 24,15 A 12,12 0 0 0 12,27 12,12 0 0 0 24,39 12,12 0 0 0 36,27 12,12 0 0 0 24,15 Z m 0,3 a 9,9 0 0 1 9,9 9,9 0 0 1 -9,9 9,9 0 0 1 -9,-9 9,9 0 0 1 9,-9 z"
     style="opacity:0.2;fill:#000000;fill-opacity:1;stroke:none;stroke-width:2;stroke-linecap:round;stroke-linejoin:round;stroke-miterlimit:4;stroke-dasharray:none;stroke-opacity:1"
     inkscape:connector-curvature="0" />
  <path
     style="opacity:1;fill:#aaceee;fill-opacity:1;stroke:none;stroke-width:2;stroke-linecap:round;stroke-linejoin:round;stroke-miterlimit:4;stroke-dasharray:none;stroke-opacity:1"
     d="M 24 14 A 12 12 0 0 0 12 26 A 12 12 0 0 0 24 38 A 12 12 0 0 0 36 26 A 12 12 0 0 0 24 14 z M 24 17 A 9 9 0 0 1 33 26 A 9 9 0 0 1 24 35 A 9 9 0 0 1 15 26 A 9 9 0 0 1 24 17 z "
     id="path4167" />
  <path
     id="path4172"
     d="m 24,21 a 6,6 0 0 0 -6,6 6,6 0 0 0 6,6 6,6 0 0 0 6,-6 6,6 0 0 0 -6,-6 z"
     style="opacity:0.2;fill:#000000;fill-opacity:1;stroke:none;stroke-width:2;stroke-linecap:round;stroke-linejoin:round;stroke-miterlimit:4;stroke-dasharray:none;stroke-opacity:1"
     inkscape:connector-curvature="0" />
  <path
     style="opacity:1;fill:#ffffff;fill-opacity:1;stroke:none;stroke-width:2;stroke-linecap:round;stroke-linejoin:round;stroke-miterlimit:4;stroke-dasharray:none;stroke-opacity:1"
     d="m 24,20 a 6,6 0 0 0 -6,6 6,6 0 0 0 6,6 6,6 0 0 0 6,-6 6,6 0 0 0 -6,-6 z"
     id="path4139" />
  <circle
     r="3"
     cy="13"
     cx="15"
     id="circle4174"
     style="opacity:0.2;fill:#000000;fill-opacity:1;stroke:none;stroke-width:2;stroke-linecap:round;stroke-linejoin:round;stroke-miterlimit:4;stroke-dasharray:none;stroke-opacity:1" />
  <circle
     style="opacity:1;fill:#ffffff;fill-opacity:1;stroke:none;stroke-width:2;stroke-linecap:round;stroke-linejoin:round;stroke-miterlimit:4;stroke-dasharray:none;stroke-opacity:1"
     id="path4161"
     cx="15"
     cy="12"
     r="3" />
</svg>
